korla/apps/scalable/remote-desktop.svg

<?xml version="1.0" encoding="UTF-8" standalone="no"?><!DOCTYPE svg PUBLIC "-//W3C//DTD SVG 1.1//EN" "http://www.w3.org/Graphics/SVG/1.1/DTD/svg11.dtd"><svg width="100%" height="100%" viewBox="0 0 48 48" version="1.1" xmlns="http://www.w3.org/2000/svg" xmlns:xlink="http://www.w3.org/1999/xlink" xml:space="preserve" xmlns:serif="http://www.serif.com/" style="fill-rule:evenodd;clip-rule:evenodd;stroke-linecap:round;stroke-linejoin:round;stroke-miterlimit:1.5;"><path id="rect19" d="M46.8,12.157c0,-0.988 -0.802,-1.791 -1.791,-1.791l-37.848,0c-0.989,0 -1.792,0.803 -1.792,1.791l0,28.433c0,0.988 0.803,1.791 1.792,1.791l37.848,0c0.989,0 1.791,-0.803 1.791,-1.791l0,-28.433Z" style="fill-opacity:0.666667;"/><path id="rect17" d="M42.261,5.243l-41.269,-0.073l0.179,29.601l41.269,0.074l-0.179,-29.602Z" style="fill-opacity:0.666667;"/><path id="ellipse29" d="M39.39,29.631c4.364,0.371 7.604,4.222 7.232,8.593c-0.372,4.371 -4.217,7.619 -8.58,7.247c-4.364,-0.371 -7.605,-4.222 -7.232,-8.593c0.372,-4.371 4.216,-7.619 8.58,-7.247Z" style="fill-opacity:0.666667;"/><use id="_Image2_" serif:id="_Image2" xlink:href="#_Image1" x="0" y="0" width="42px" height="30px" transform="matrix(0.986859,3.80731e-11,3.52723e-09,0.98918,0.991794,4.66893)"/><path id="rect41" d="M46.8,11.657c0,-0.988 -0.803,-1.791 -1.791,-1.791l-37.849,0c-0.988,0 -1.791,0.803 -1.791,1.791l0,28.433c0,0.988 0.803,1.791 1.791,1.791l37.849,0c0.988,0 1.791,-0.803 1.791,-1.791l0,-28.433Z" style="fill:url(#_Linear2);"/><path id="ellipse51" d="M39.39,29.131c4.364,0.371 7.605,4.222 7.232,8.593c-0.372,4.372 -4.216,7.619 -8.58,7.248c-4.364,-0.372 -7.604,-4.222 -7.232,-8.594c0.372,-4.371 4.217,-7.619 8.58,-7.247Z" style="fill:url(#_Linear3);"/><path id="path53" d="M40.661,40.628c-0.188,0 -0.376,-0.081 -0.513,-0.24c-0.351,-0.409 -0.851,-0.643 -1.372,-0.643c-0.529,0 -1.016,0.227 -1.37,0.64c-0.257,0.3 -0.695,0.323 -0.979,0.051c-0.284,-0.272 -0.306,-0.735 -0.049,-1.034c0.612,-0.712 1.486,-1.121 2.398,-1.121c0.912,0 1.786,0.41 2.399,1.123c0.257,0.3 0.236,0.763 -0.048,1.035c-0.132,0.127 -0.299,0.189 -0.466,0.189Zm1.539,-1.831c-0.177,0 -0.354,-0.072 -0.489,-0.214c-0.785,-0.824 -1.827,-1.278 -2.935,-1.278c-1.109,0 -2.152,0.453 -2.935,1.275c-0.271,0.285 -0.71,0.284 -0.98,-0.003c-0.27,-0.286 -0.269,-0.75 0.003,-1.035c1.044,-1.097 2.434,-1.702 3.913,-1.702c1.476,0 2.865,0.606 3.912,1.705c0.272,0.285 0.273,0.749 0.003,1.036c-0.136,0.143 -0.314,0.215 -0.492,0.215l0,0.001Zm1.535,-1.829c-0.173,0 -0.346,-0.068 -0.48,-0.204c-1.211,-1.225 -2.801,-1.9 -4.479,-1.9c-1.681,0 -3.272,0.674 -4.479,1.898c-0.276,0.28 -0.715,0.27 -0.98,-0.021c-0.266,-0.292 -0.256,-0.756 0.02,-1.036c1.467,-1.486 3.398,-2.305 5.439,-2.305c2.037,0 3.969,0.819 5.438,2.307c0.277,0.279 0.286,0.743 0.021,1.035c-0.136,0.15 -0.318,0.226 -0.5,0.226Zm-5.045,5.432c0.462,0 0.837,-0.376 0.837,-0.839c0,-0.464 -0.375,-0.839 -0.837,-0.839c-0.463,0 -0.838,0.375 -0.838,0.839c0,0.463 0.375,0.839 0.838,0.839Z" style="fill:#fff;fill-opacity:0.866667;fill-rule:nonzero;"/><path d="M9.137,13.243l9.89,0" style="fill:none;stroke:#fff;stroke-opacity:0.14902;stroke-width:3.38px;"/><defs><image id="_Image1" width="42px" height="30px" xlink:href="data:image/png;base64,iVBORw0KGgoAAAANSUhEUgAAACoAAAAeCAYAAABaKIzgAAAACXBIWXMAAA7EAAAOxAGVKw4bAAAAxElEQVRYheWY0Q2AMAhENWFFN3YqE6hfRGPUtnLQNr4BLnA9aHVe1i1NA0AsYEWntkm+FgouKCdHwnaRCPBH7wSJzBAhuOsXwXpHG+WgKKMoLD2OlFGbgHc2lXJHG++oe0eBRaGkiAOHyYI5owhSge3ZQqOGJccxTAlzQ3lBzH0XqDTNaEk2lcdCe8mm0v160v5MRx95Wf3nUfJGzbDkwDnqnIPqh3OrR9RIGcXfTMhsKnZHg7IQ+nF3pra/2/XUw5+RKzsTwl3jjQmMhQAAAABJRU5ErkJggg=="/><linearGradient id="_Linear2" x1="0" y1="0" x2="1" y2="0" gradientUnits="userSpaceOnUse" gradientTransform="matrix(64.3748,-51.6382,51.6382,64.3748,6.42565,41.7676)"><stop offset="0" style="stop-color:#2980b9;stop-opacity:1"/><stop offset="1" style="stop-color:#ba174e;stop-opacity:0.992157"/></linearGradient><linearGradient id="_Linear3" x1="0" y1="0" x2="1" y2="0" gradientUnits="userSpaceOnUse" gradientTransform="matrix(-0.390602,-44.333,44.333,-0.390602,37.9948,45.1251)"><stop offset="0" style="stop-color:#1365f4;stop-opacity:1"/><stop offset="1" style="stop-color:#05b2fc;stop-opacity:1"/></linearGradient></defs></svg>

<?xml version="1.0" encoding="UTF-8" standalone="no"?>
<!DOCTYPE svg PUBLIC "-//W3C//DTD SVG 1.1//EN" "http://www.w3.org/Graphics/SVG/1.1/DTD/svg11.dtd">
<svg width="100%" height="100%" viewBox="0 0 48 48" version="1.1" xmlns="http://www.w3.org/2000/svg" xmlns:xlink="http://www.w3.org/1999/xlink" xml:space="preserve" xmlns:serif="http://www.serif.com/" style="fill-rule:evenodd;clip-rule:evenodd;stroke-linecap:round;stroke-linejoin:round;stroke-miterlimit:1.5;">
    <g id="g37" transform="matrix(1,0,0,1,-384.571,-499.298)">
        <g id="rect17" transform="matrix(0.999998,0.00178706,0.00604892,0.999982,0,0)">
            <rect x="382.516" y="503.793" width="41.269" height="29.602" style="fill-opacity:0.666667;"/>
        </g>
        <g id="g35">
            <g id="g27">
                <path id="rect19" d="M431.371,511.455C431.371,510.467 430.569,509.664 429.58,509.664L391.732,509.664C390.743,509.664 389.94,510.467 389.94,511.455L389.94,539.888C389.94,540.876 390.743,541.679 391.732,541.679L429.58,541.679C430.569,541.679 431.371,540.876 431.371,539.888L431.371,511.455Z" style="fill-opacity:0.666667;"/>
                <circle id="circle21" cx="427.733" cy="513.585" r="1.943" style="fill-opacity:0.666667;"/>
                <circle id="circle23" cx="422.959" cy="513.626" r="1.943" style="fill-opacity:0.666667;"/>
                <circle id="circle25" cx="418.266" cy="513.672" r="1.943" style="fill-opacity:0.666667;"/>
            </g>
            <g id="g33">
                <g id="ellipse29" transform="matrix(0.996397,0.084814,-0.084814,0.996397,0,0)">
                    <ellipse cx="467.294" cy="499.014" rx="7.935" ry="7.949" style="fill-opacity:0.666667;"/>
                </g>
                <path id="path31" d="M425.233,540.426C425.044,540.426 424.856,540.345 424.719,540.186C424.368,539.777 423.869,539.543 423.348,539.543C422.818,539.543 422.331,539.77 421.977,540.183C421.72,540.483 421.282,540.506 420.998,540.234C420.714,539.962 420.692,539.499 420.95,539.2C421.561,538.488 422.435,538.079 423.348,538.079C424.259,538.079 425.133,538.489 425.746,539.202C426.004,539.502 425.982,539.965 425.698,540.237C425.566,540.364 425.399,540.426 425.233,540.426L425.233,540.426ZM426.771,538.595C426.594,538.595 426.417,538.523 426.282,538.381C425.497,537.557 424.455,537.103 423.348,537.103C422.238,537.103 421.196,537.556 420.412,538.378C420.141,538.663 419.702,538.662 419.432,538.375C419.162,538.089 419.163,537.625 419.435,537.34C420.48,536.243 421.869,535.638 423.348,535.638C424.824,535.638 426.214,536.244 427.26,537.343C427.532,537.628 427.533,538.092 427.263,538.379C427.128,538.522 426.949,538.594 426.772,538.594L426.771,538.595ZM428.306,536.766C428.134,536.766 427.961,536.698 427.826,536.562C426.616,535.337 425.026,534.662 423.348,534.662C421.667,534.662 420.076,535.336 418.869,536.56C418.593,536.84 418.154,536.83 417.888,536.539C417.623,536.247 417.632,535.783 417.908,535.503C419.375,534.017 421.307,533.198 423.348,533.198C425.385,533.198 427.316,534.018 428.786,535.505C429.062,535.784 429.071,536.248 428.807,536.54C428.67,536.69 428.488,536.766 428.306,536.766L428.306,536.766ZM423.261,542.198C423.724,542.198 424.099,541.822 424.099,541.359C424.099,540.895 423.724,540.52 423.261,540.52C422.798,540.52 422.423,540.895 422.423,541.359C422.423,541.822 422.798,542.198 423.261,542.198Z" style="fill-opacity:0.666667;fill-rule:nonzero;"/>
            </g>
        </g>
    </g>
    <g id="rect39" transform="matrix(0.999998,0.00178706,0.00604892,0.999982,0,0)">
        <clipPath id="_clip1">
            <rect x="0.963" y="4.667" width="41.269" height="29.602"/>
        </clipPath>
        <g clip-path="url(#_clip1)">
            <g transform="matrix(1.00001,-0.00178711,-0.00604911,1.00003,0,0)">
                <use xlink:href="#_Image2" x="1.005" y="4.72" width="41.448px" height="29.675px" transform="matrix(0.986862,0,0,0.989179,0,0)"/>
            </g>
        </g>
    </g>
    <path id="rect41" d="M46.8,11.657C46.8,10.669 45.997,9.866 45.009,9.866L7.16,9.866C6.172,9.866 5.369,10.669 5.369,11.657L5.369,40.09C5.369,41.078 6.172,41.881 7.16,41.881L45.009,41.881C45.997,41.881 46.8,41.078 46.8,40.09L46.8,11.657Z" style="fill:url(#_Linear3);"/>
    <g id="ellipse51" transform="matrix(0.996397,0.084814,-0.084814,0.996397,0,0)">
        <ellipse cx="41.719" cy="33.634" rx="7.935" ry="7.949" style="fill:url(#_Linear4);"/>
    </g>
    <path id="path53" d="M40.661,40.628C40.473,40.628 40.285,40.547 40.148,40.388C39.797,39.979 39.297,39.745 38.776,39.745C38.247,39.745 37.76,39.972 37.406,40.385C37.149,40.685 36.711,40.708 36.427,40.436C36.143,40.164 36.121,39.701 36.378,39.402C36.99,38.69 37.864,38.281 38.776,38.281C39.688,38.281 40.562,38.691 41.175,39.404C41.432,39.704 41.411,40.167 41.127,40.439C40.995,40.566 40.828,40.628 40.661,40.628L40.661,40.628ZM42.2,38.797C42.023,38.797 41.846,38.725 41.711,38.583C40.926,37.759 39.884,37.305 38.776,37.305C37.667,37.305 36.624,37.758 35.841,38.58C35.57,38.865 35.131,38.864 34.861,38.577C34.591,38.291 34.592,37.827 34.864,37.542C35.908,36.445 37.298,35.84 38.777,35.84C40.253,35.84 41.642,36.446 42.689,37.545C42.961,37.83 42.962,38.294 42.692,38.581C42.556,38.724 42.378,38.796 42.2,38.796L42.2,38.797ZM43.735,36.968C43.562,36.968 43.389,36.9 43.255,36.764C42.044,35.539 40.454,34.864 38.776,34.864C37.095,34.864 35.504,35.538 34.297,36.762C34.021,37.042 33.582,37.032 33.317,36.741C33.051,36.449 33.061,35.985 33.337,35.705C34.804,34.219 36.735,33.4 38.776,33.4C40.813,33.4 42.745,34.219 44.214,35.707C44.491,35.986 44.5,36.45 44.235,36.742C44.099,36.892 43.917,36.968 43.735,36.968L43.735,36.968ZM38.69,42.4C39.152,42.4 39.527,42.024 39.527,41.561C39.527,41.097 39.152,40.722 38.69,40.722C38.227,40.722 37.852,41.097 37.852,41.561C37.852,42.024 38.227,42.4 38.69,42.4Z" style="fill:white;fill-opacity:0.870588;fill-rule:nonzero;"/>
    <g transform="matrix(0.806604,0,0,1,5.07906,4.10602)">
        <path d="M5.031,9.137L17.292,9.137" style="fill:none;stroke:white;stroke-opacity:0.152941;stroke-width:3.72px;"/>
    </g>
    <defs>
        <image id="_Image2" width="42px" height="30px" xlink:href="data:image/png;base64,iVBORw0KGgoAAAANSUhEUgAAACoAAAAeCAYAAABaKIzgAAAACXBIWXMAAA7EAAAOxAGVKw4bAAAAxElEQVRYheWY0Q2AMAhENWFFN3YqE6hfRGPUtnLQNr4BLnA9aHVe1i1NA0AsYEWntkm+FgouKCdHwnaRCPBH7wSJzBAhuOsXwXpHG+WgKKMoLD2OlFGbgHc2lXJHG++oe0eBRaGkiAOHyYI5owhSge3ZQqOGJccxTAlzQ3lBzH0XqDTNaEk2lcdCe8mm0v160v5MRx95Wf3nUfJGzbDkwDnqnIPqh3OrR9RIGcXfTMhsKnZHg7IQ+nF3pra/2/XUw5+RKzsTwl3jjQmMhQAAAABJRU5ErkJggg=="/>
        <linearGradient id="_Linear3" x1="0" y1="0" x2="1" y2="0" gradientUnits="userSpaceOnUse" gradientTransform="matrix(64.3748,-51.6382,51.6382,64.3748,6.42565,41.7676)"><stop offset="0" style="stop-color:rgb(41,128,185);stop-opacity:1"/><stop offset="1" style="stop-color:rgb(186,23,78);stop-opacity:0.992157"/></linearGradient>
        <linearGradient id="_Linear4" x1="0" y1="0" x2="1" y2="0" gradientUnits="userSpaceOnUse" gradientTransform="matrix(-4.14925,-44.1401,44.1401,-4.14925,41.6851,41.74)"><stop offset="0" style="stop-color:rgb(19,101,244);stop-opacity:1"/><stop offset="1" style="stop-color:rgb(5,178,252);stop-opacity:1"/></linearGradient>
    </defs>
</svg>
